web/public/assets/total-bundles.svg

<svg fill="none" height="44" viewBox="0 0 44 44" width="44" xmlns="http://www.w3.org/2000/svg" xmlns:xlink="http://www.w3.org/1999/xlink"><clipPath id="a"><path d="m11.1982 11.115h22v22h-22z"/></clipPath><rect fill="#f1f1f1" height="44" rx="22" width="44"/><g clip-path="url(#a)" clip-rule="evenodd" fill-rule="evenodd"><path d="m23.2663 33.115c-.3475.0035-.6865-.1067-.9655-.3138h-.0724-.0724c-.279.2071-.618.3173-.9654.3138h-8.3028c-.2219 0-.4416-.0437-.6466-.1286s-.3912-.2094-.5481-.3662c-.1569-.1569-.2813-.3432-.3663-.5482-.0849-.205-.1286-.4247-.1286-.6465v-8.2425c0-.2219.0437-.4416.1286-.6465.085-.205.2094-.3913.3663-.5482.1569-.1568.3431-.2813.5481-.3662s.4247-.1286.6466-.1286h3.5238v-.1328c-.0059-.0843-.0059-.169 0-.2534v-8.3028c-.0002-.4398.1712-.8624.4777-1.1779s.7239-.499 1.1636-.5116h8.2786c.4481 0 .8779.178 1.1947.4948.3169.3169.4949.7466.4949 1.1947v8.2787c.0059.0844.0059.169 0 .2534v.1328h3.5238c.4481 0 .8778.178 1.1947.4948.3168.3169.4948.7466.4948 1.1947v8.2666c0 .4481-.178.8778-.4948 1.1947-.3169.3168-.7466.4948-1.1947.4948zm-.4345-10.2095c.006.0843.006.169 0 .2534v8.2666c-.0016.0501.0069.1001.025.1469.018.0467.0453.0894.0802.1254.0349.0361.0767.0647.1229.0843.0462.0195.0959.0296.146.0296h8.2787c.0501 0 .0998-.0101.146-.0296.0462-.0196.088-.0482.1229-.0843.0349-.036.0622-.0787.0803-.1254.018-.0468.0265-.0968.0249-.1469v-8.2425c.0016-.0501-.0069-.1001-.0249-.1469-.0181-.0467-.0454-.0894-.0803-.1255-.0349-.036-.0767-.0646-.1229-.0842-.0462-.0195-.0959-.0296-.146-.0296h-8.6769zm-9.944-.1328c-.1025 0-.2007.0407-.2731.1131s-.1131.1707-.1131.2731v8.2666c0 .1024.0407.2006.1131.273.0724.0725.1706.1132.2731.1132h8.2666c.1024 0 .2006-.0407.273-.1132.0724-.0724.1131-.1706.1131-.273v-8.2425c-.0065-.0763-.0065-.153 0-.2293v-.1569h-.1327zm5.1651-10.3423c-.0992 0-.1944.0394-.2646.1096-.0701.0701-.1095.1653-.1095.2645v8.2787c-.0016.0501.0068.1001.0249.1469.0181.0467.0454.0894.0803.1255.0349.036.0767.0646.1229.0842.0462.0195.0958.0296.146.0296h8.2786c.1025 0 .2007-.0407.2731-.1131.0724-.0725.1131-.1707.1131-.2731v-8.2787c-.0031-.1003-.0452-.1954-.1173-.2653-.0721-.0698-.1685-.1088-.2689-.1088z" fill="#1a1a1a"/><g fill="#004bff"><path d="m20.1286 16.5697c-.17.0003-.3335-.0646-.457-.1814-.1235-.1167-.1975-.2764-.2068-.4461v-1.062c.0216-.1591.1002-.305.2211-.4106.121-.1056.2761-.1638.4367-.1638.1605 0 .3156.0582.4366.1638.1209.1056.1995.2515.2211.4106v.3741h2.8239v-.3741c.0216-.1591.1001-.305.2211-.4106.1209-.1056.276-.1638.4366-.1638.1605 0 .3157.0582.4366.1638s.1995.2515.2211.4106v1.062c-.0031.1719-.0728.3358-.1943.4574-.1216.1215-.2855.1912-.4574.1943z"/><path d="m14.9515 26.912c-.1719-.0031-.3359-.0727-.4574-.1943-.1215-.1215-.1912-.2855-.1943-.4573v-1.0379c0-.1728.0687-.3386.1909-.4608s.2879-.1909.4608-.1909c.1728 0 .3386.0687.4608.1909s.1909.288.1909.4608v.3741h2.8359v-.3741c.0031-.1719.0728-.3358.1943-.4574.1216-.1215.2855-.1912.4574-.1943.1728 0 .3386.0687.4608.1909s.1909.288.1909.4608v1.0379c0 .1728-.0687.3386-.1909.4608s-.288.1908-.4608.1908z"/><path d="m25.2935 26.912c-.1718-.0031-.3358-.0727-.4574-.1943-.1215-.1215-.1912-.2855-.1943-.4573v-1.0379c0-.1728.0687-.3386.1909-.4608s.288-.1909.4608-.1909c.174 0 .341.0683.4651.1902.1242.1218.1955.2876.1987.4615v.3741h2.8239v-.3741c0-.1728.0686-.3386.1908-.4608.1223-.1222.288-.1909.4608-.1909.174 0 .341.0683.4652.1902.1241.1218.1954.2876.1986.4615v1.0379c-.0032.1739-.0745.3396-.1986.4615-.1242.1219-.2912.1902-.4652.1901z"/></g></g></svg>

<svg width="44" height="44" viewBox="0 0 44 44" fill="none" xmlns="http://www.w3.org/2000/svg">
<rect width="44" height="44" rx="22" fill="#F1F1F1"/>
<g clip-path="url(#clip0_40_35844)">
<path fill-rule="evenodd" clip-rule="evenodd" d="M23.2663 33.115C22.9188 33.1185 22.5798 33.0083 22.3008 32.8012H22.2284H22.156C21.877 33.0083 21.538 33.1185 21.1906 33.115H12.8878C12.6659 33.115 12.4462 33.0713 12.2412 32.9864C12.0362 32.9015 11.85 32.777 11.6931 32.6202C11.5362 32.4633 11.4118 32.277 11.3268 32.072C11.2419 31.867 11.1982 31.6473 11.1982 31.4255V23.183C11.1982 22.9611 11.2419 22.7414 11.3268 22.5365C11.4118 22.3315 11.5362 22.1452 11.6931 21.9883C11.85 21.8315 12.0362 21.707 12.2412 21.6221C12.4462 21.5372 12.6659 21.4935 12.8878 21.4935H16.4116V21.3607C16.4057 21.2764 16.4057 21.1917 16.4116 21.1073V12.8045C16.4114 12.3647 16.5828 11.9421 16.8893 11.6266C17.1958 11.3111 17.6132 11.1276 18.0529 11.115H26.3315C26.7796 11.115 27.2094 11.293 27.5262 11.6098C27.8431 11.9267 28.0211 12.3564 28.0211 12.8045V21.0832C28.027 21.1676 28.027 21.2522 28.0211 21.3366V21.4694H31.5449C31.993 21.4694 32.4227 21.6474 32.7396 21.9642C33.0564 22.2811 33.2344 22.7108 33.2344 23.1589V31.4255C33.2344 31.8736 33.0564 32.3033 32.7396 32.6202C32.4227 32.937 31.993 33.115 31.5449 33.115H23.2663ZM22.8318 22.9055C22.8378 22.9898 22.8378 23.0745 22.8318 23.1589V31.4255C22.8302 31.4756 22.8387 31.5256 22.8568 31.5724C22.8748 31.6191 22.9021 31.6618 22.937 31.6978C22.9719 31.7339 23.0137 31.7625 23.0599 31.7821C23.1061 31.8016 23.1558 31.8117 23.2059 31.8117H31.4846C31.5347 31.8117 31.5844 31.8016 31.6306 31.7821C31.6768 31.7625 31.7186 31.7339 31.7535 31.6978C31.7884 31.6618 31.8157 31.6191 31.8338 31.5724C31.8518 31.5256 31.8603 31.4756 31.8587 31.4255V23.183C31.8603 23.1329 31.8518 23.0829 31.8338 23.0361C31.8157 22.9894 31.7884 22.9467 31.7535 22.9106C31.7186 22.8746 31.6768 22.846 31.6306 22.8264C31.5844 22.8069 31.5347 22.7968 31.4846 22.7968H22.8077L22.8318 22.9055ZM12.8878 22.7727C12.7853 22.7727 12.6871 22.8134 12.6147 22.8858C12.5423 22.9582 12.5016 23.0565 12.5016 23.1589V31.4255C12.5016 31.5279 12.5423 31.6261 12.6147 31.6985C12.6871 31.771 12.7853 31.8117 12.8878 31.8117H21.1544C21.2568 31.8117 21.355 31.771 21.4274 31.6985C21.4998 31.6261 21.5405 31.5279 21.5405 31.4255V23.183C21.534 23.1067 21.534 23.03 21.5405 22.9537V22.7968H21.4078L12.8878 22.7727ZM18.0529 12.4304C17.9537 12.4304 17.8585 12.4698 17.7883 12.54C17.7182 12.6101 17.6788 12.7053 17.6788 12.8045V21.0832C17.6772 21.1333 17.6856 21.1833 17.7037 21.2301C17.7218 21.2768 17.7491 21.3195 17.784 21.3556C17.8189 21.3916 17.8607 21.4202 17.9069 21.4398C17.9531 21.4593 18.0027 21.4694 18.0529 21.4694H26.3315C26.434 21.4694 26.5322 21.4287 26.6046 21.3563C26.677 21.2838 26.7177 21.1856 26.7177 21.0832V12.8045C26.7146 12.7042 26.6725 12.6091 26.6004 12.5392C26.5283 12.4694 26.4319 12.4304 26.3315 12.4304H18.0529Z" fill="#1A1A1A"/>
<path fill-rule="evenodd" clip-rule="evenodd" d="M20.1286 16.5697C19.9586 16.57 19.7951 16.5051 19.6716 16.3883C19.5481 16.2716 19.4741 16.1119 19.4648 15.9422V14.8802C19.4864 14.7211 19.565 14.5752 19.6859 14.4696C19.8069 14.364 19.962 14.3058 20.1226 14.3058C20.2831 14.3058 20.4382 14.364 20.5592 14.4696C20.6801 14.5752 20.7587 14.7211 20.7803 14.8802V15.2543H23.6042V14.8802C23.6258 14.7211 23.7043 14.5752 23.8253 14.4696C23.9462 14.364 24.1013 14.3058 24.2619 14.3058C24.4224 14.3058 24.5776 14.364 24.6985 14.4696C24.8194 14.5752 24.898 14.7211 24.9196 14.8802V15.9422C24.9165 16.1141 24.8468 16.278 24.7253 16.3996C24.6037 16.5211 24.4398 16.5908 24.2679 16.5939L20.1286 16.5697Z" fill="#004BFF"/>
<path fill-rule="evenodd" clip-rule="evenodd" d="M14.9515 26.912C14.7796 26.9089 14.6156 26.8393 14.4941 26.7177C14.3726 26.5962 14.3029 26.4322 14.2998 26.2604V25.2225C14.2998 25.0497 14.3685 24.8839 14.4907 24.7617C14.6129 24.6395 14.7786 24.5708 14.9515 24.5708C15.1243 24.5708 15.2901 24.6395 15.4123 24.7617C15.5345 24.8839 15.6032 25.0497 15.6032 25.2225V25.5966H18.4391V25.2225C18.4422 25.0506 18.5119 24.8867 18.6334 24.7651C18.755 24.6436 18.9189 24.5739 19.0908 24.5708C19.2636 24.5708 19.4294 24.6395 19.5516 24.7617C19.6738 24.8839 19.7425 25.0497 19.7425 25.2225V26.2604C19.7425 26.4332 19.6738 26.599 19.5516 26.7212C19.4294 26.8434 19.2636 26.912 19.0908 26.912H14.9515Z" fill="#004BFF"/>
<path fill-rule="evenodd" clip-rule="evenodd" d="M25.2935 26.912C25.1217 26.9089 24.9577 26.8393 24.8361 26.7177C24.7146 26.5962 24.6449 26.4322 24.6418 26.2604V25.2225C24.6418 25.0497 24.7105 24.8839 24.8327 24.7617C24.9549 24.6395 25.1207 24.5708 25.2935 24.5708C25.4675 24.5708 25.6345 24.6391 25.7586 24.761C25.8828 24.8828 25.9541 25.0486 25.9573 25.2225V25.5966H28.7812V25.2225C28.7812 25.0497 28.8498 24.8839 28.972 24.7617C29.0943 24.6395 29.26 24.5708 29.4328 24.5708C29.6068 24.5708 29.7738 24.6391 29.898 24.761C30.0221 24.8828 30.0934 25.0486 30.0966 25.2225V26.2604C30.0934 26.4343 30.0221 26.6 29.898 26.7219C29.7738 26.8438 29.6068 26.9121 29.4328 26.912H25.2935Z" fill="#004BFF"/>
</g>
<defs>
<clipPath id="clip0_40_35844">
<rect width="22" height="22" fill="white" transform="translate(11.1982 11.115)"/>
</clipPath>
</defs>
</svg>
